X:1
L:1/16
M:4/4
K:Ab
 E4 A4 c3 B A3 B | A8 E8 | F4 F4 A3 G A3 F | E12 z4 | E4 B4 A3 G A3 B | c8 A8 | B4 E4 c3 B A3 G | 
 A12 z4 | A3 G | F12 A3 F | E12 A2 B2 | c4 E4 A4 c4 | B12 z4 | c3 B | A12 A3 G | 
 (F8 !fermata!A4) A2 B2 | c4 E4 c4 B4 | A12 z4 |]
